X:0529
T:Allemanda.
M:6/8
L:1/8
Q:3/8=132
P:ABCDA
I: :: :: :: :| DC
N:Aird prints a da capo after part D (part C is printed explicitly)
Z:Jack Campin * www.campin.me.uk * 2009
K:D
P:A
 dfa    afd  | dgb    b3   | ad'f   gec  |ddd d2A|
 dfa    afd  | dgb    b3   | ad'f   gec  |ddd d3::
P:B
 aaa    d'af | gbg    e3   | fff    afd  |egc d3::
P:C
 dfa    afd  | dgb    b3   | ad'f   gec  |ddd d3::
P:D
.a.a.a .b.b.b|.g.g.g .a.a.a|.f.f.f .g.g.f|edc d3:|

